X:367
T:Keresel
Z:Jack Campin, http://www.campin.me.uk/
O:Csango Hungarian dance tune from Moldavia
M:2/2
L:1/8
Q:1/2=90
K:F
AFCF     AFCF|GABG {AG}A4  |GECE     GECE|{AG}AFGE F4:|
C2FE {DE}D3 E|CEGE     FGA2|C2FE {DE}D3 D|    CEGE F4:|

